icons/svg/road_shields/h_us_state_spur_icon_shield.svg

<?xml version="1.0" encoding="UTF-8" standalone="no"?>
<!-- Generator: Adobe Illustrator 16.0.4, SVG Export Plug-In . SVG Version: 6.00 Build 0)  -->

<svg
   xmlns:dc="http://purl.org/dc/elements/1.1/"
   xmlns:cc="http://creativecommons.org/ns#"
   xmlns:rdf="http://www.w3.org/1999/02/22-rdf-syntax-ns#"
   xmlns:svg="http://www.w3.org/2000/svg"
   xmlns="http://www.w3.org/2000/svg"
   xmlns:sodipodi="http://sodipodi.sourceforge.net/DTD/sodipodi-0.dtd"
   xmlns:inkscape="http://www.inkscape.org/namespaces/inkscape"
   version="1.1"
   id="Слой_1"
   x="0px"
   y="0px"
   width="25"
   height="33"
   viewBox="0 0 25 33"
   enable-background="new 0 0 17.143 17.17"
   xml:space="preserve"
   inkscape:version="0.91 r"
   sodipodi:docname="h_us_state_spur_icon_shield.svg"><metadata
     id="metadata13"><rdf:RDF><cc:Work
         rdf:about=""><dc:format>image/svg+xml</dc:format><dc:type
           rdf:resource="http://purl.org/dc/dcmitype/StillImage" /><dc:title /></cc:Work></rdf:RDF></metadata><defs
     id="defs11" /><sodipodi:namedview
     pagecolor="#ffffff"
     bordercolor="#666666"
     borderopacity="1"
     objecttolerance="10"
     gridtolerance="10"
     guidetolerance="10"
     inkscape:pageopacity="0"
     inkscape:pageshadow="2"
     inkscape:window-width="1920"
     inkscape:window-height="1004"
     id="namedview9"
     showgrid="false"
     inkscape:zoom="38.87646"
     inkscape:cx="6.4655913"
     inkscape:cy="28.0208"
     inkscape:window-x="1680"
     inkscape:window-y="0"
     inkscape:window-maximized="1"
     inkscape:current-layer="Слой_1" /><rect
     style="color:#000000;clip-rule:evenodd;display:inline;overflow:visible;visibility:visible;opacity:1;isolation:auto;mix-blend-mode:normal;color-interpolation:sRGB;color-interpolation-filters:linearRGB;solid-color:#000000;solid-opacity:1;fill:#ffffff;fill-opacity:1;fill-rule:evenodd;stroke:#515151;stroke-width:1.08273661;stroke-linecap:butt;stroke-linejoin:miter;stroke-miterlimit:4;stroke-dasharray:none;stroke-dashoffset:0;stroke-opacity:1;marker:none;color-rendering:auto;image-rendering:auto;shape-rendering:auto;text-rendering:auto;enable-background:accumulate"
     id="rect4135"
     width="19.803215"
     height="7.0026784"
     x="2.598392"
     y="0.54192752"
     ry="0" /><path
     inkscape:connector-curvature="0"
     id="path4145"
     style="font-style:normal;font-variant:normal;font-weight:bold;font-stretch:normal;font-size:medium;line-height:125%;font-family:Sans;-inkscape-font-specification:'Sans Bold';letter-spacing:0px;word-spacing:0px;fill:#515151;fill-opacity:1;stroke:none;stroke-width:1px;stroke-linecap:butt;stroke-linejoin:miter;stroke-opacity:1"
     d="m 7.4799743,2.093051 0,0.8200197 q -0.3191848,-0.142725 -0.6227997,-0.215385 -0.3036149,-0.07266 -0.5734947,-0.07266 -0.3581099,0 -0.5293798,0.098609 -0.17127,0.098609 -0.17127,0.3062099 0,0.1557 0.1141799,0.2439299 0.116775,0.085635 0.4203899,0.147915 l 0.4255799,0.085634 q 0.6461547,0.12975 0.9186296,0.3944398 0.2724749,0.26469 0.2724749,0.7525499 0,0.6409647 -0.3814649,0.9549596 -0.3788698,0.3113998 -1.1599646,0.3113998 -0.3684897,0 -0.7395746,-0.070065 -0.3710849,-0.070063 -0.7421697,-0.207598 l 0,-0.8433746 q 0.3710848,0.1972199 0.7162197,0.2984249 0.3477298,0.09861 0.6695097,0.09861 0.3269699,0 0.5008348,-0.10899 0.1738649,-0.10899 0.1738649,-0.3113999 0,-0.18165 -0.11937,-0.2802599 Q 6.5353948,4.3974101 6.1824749,4.3195602 L 5.79582,4.2339252 Q 5.2145403,4.1093652 4.9446603,3.8368904 4.6773755,3.5644154 4.6773755,3.1025056 q 0,-0.5786848 0.3736798,-0.8900846 0.3736799,-0.3113999 1.0743296,-0.3113999 0.3191848,0 0.6565348,0.049305 0.3373499,0.04671 0.6980546,0.1427251 z" /><path
     inkscape:connector-curvature="0"
     id="path4147"
     style="font-style:normal;font-variant:normal;font-weight:bold;font-stretch:normal;font-size:medium;line-height:125%;font-family:Sans;-inkscape-font-specification:'Sans Bold';letter-spacing:0px;word-spacing:0px;fill:#515151;fill-opacity:1;stroke:none;stroke-width:1px;stroke-linecap:butt;stroke-linejoin:miter;stroke-opacity:1"
     d="m 8.613989,1.9710861 1.658204,0 q 0.739575,0 1.134015,0.3295649 0.397035,0.3269698 0.397035,0.9341995 0,0.6098249 -0.397035,0.9393897 -0.39444,0.3269699 -1.134015,0.3269699 l -0.6591294,0 0,1.3442095 -0.9990746,0 0,-3.8743335 z m 0.9990746,0.7240047 0,1.0821145 0.5527344,0 q 0.29064,0 0.448935,-0.1401299 0.158295,-0.1427249 0.158295,-0.4022249 0,-0.2594998 -0.158295,-0.3996297 -0.158295,-0.14013 -0.448935,-0.14013 l -0.5527344,0 z" /><path
     inkscape:connector-curvature="0"
     id="path4149"
     style="font-style:normal;font-variant:normal;font-weight:bold;font-stretch:normal;font-size:medium;line-height:125%;font-family:Sans;-inkscape-font-specification:'Sans Bold';letter-spacing:0px;word-spacing:0px;fill:#515151;fill-opacity:1;stroke:none;stroke-width:1px;stroke-linecap:butt;stroke-linejoin:miter;stroke-opacity:1"
     d="m 12.506487,1.9710861 0.999075,0 0,2.3225241 q 0,0.4800748 0.1557,0.6876747 0.158295,0.2050049 0.513809,0.2050049 0.358111,0 0.51381,-0.2050049 0.158296,-0.2075999 0.158296,-0.6876747 l 0,-2.3225241 0.999074,0 0,2.3225241 q 0,0.8226147 -0.412604,1.2248395 -0.412604,0.4022249 -1.258576,0.4022249 -0.843374,0 -1.255978,-0.4022249 -0.412606,-0.4022248 -0.412606,-1.2248395 l 0,-2.3225241 z" /><path
     inkscape:connector-curvature="0"
     id="path4151"
     style="font-style:normal;font-variant:normal;font-weight:bold;font-stretch:normal;font-size:medium;line-height:125%;font-family:Sans;-inkscape-font-specification:'Sans Bold';letter-spacing:0px;word-spacing:0px;fill:#515151;fill-opacity:1;stroke:none;stroke-width:1px;stroke-linecap:butt;stroke-linejoin:miter;stroke-opacity:1"
     d="m 18.244029,3.6889754 q 0.313996,0 0.448936,-0.1167749 0.137535,-0.116775 0.137535,-0.3840599 0,-0.2646899 -0.137535,-0.3788699 -0.134939,-0.1141799 -0.448936,-0.1141799 l -0.420389,0 0,0.9938846 0.420389,0 z m -0.420389,0.6902698 0,1.4661744 -0.999075,0 0,-3.8743335 1.52586,0 q 0.765524,0 1.12104,0.2569049 0.358109,0.2569048 0.358109,0.8122347 0,0.3840598 -0.18684,0.6305847 -0.184244,0.246525 -0.557924,0.3632999 0.205005,0.04671 0.365894,0.2127899 0.163486,0.163485 0.329566,0.4982398 l 0.542355,1.1002796 -1.063949,0 L 18.786385,4.882675 Q 18.643661,4.5920351 18.495744,4.4856402 18.350425,4.3792452 18.106495,4.3792452 l -0.282854,0 z" /></svg>

<svg width="25" height="33" viewBox="0 0 25 33" fill="none" xmlns="http://www.w3.org/2000/svg">
<path d="M22.4016 0.541931H2.59839V7.54461H22.4016V0.541931Z" fill="white" stroke="#515151" stroke-width="1.08274"/>
<path d="M7.47997 2.09303V2.91305C7.26718 2.8179 7.05958 2.74611 6.85717 2.69767C6.65476 2.64923 6.46359 2.62501 6.28367 2.62501C6.04493 2.62501 5.86847 2.65788 5.75429 2.72361C5.64011 2.78935 5.58302 2.89142 5.58302 3.02982C5.58302 3.13362 5.62108 3.21493 5.6972 3.27375C5.77505 3.33084 5.91518 3.38015 6.11759 3.42167L6.54317 3.5073C6.97394 3.5938 7.28015 3.72528 7.4618 3.90174C7.64345 4.0782 7.73428 4.32905 7.73428 4.65429C7.73428 5.0816 7.60712 5.39992 7.35281 5.60925C7.10023 5.81685 6.71358 5.92065 6.19285 5.92065C5.94719 5.92065 5.70066 5.8973 5.45327 5.85059C5.20588 5.80388 4.95849 5.73468 4.7111 5.64299V4.79961C4.95849 4.93109 5.19723 5.03057 5.42732 5.09804C5.65914 5.16378 5.88231 5.19665 6.09683 5.19665C6.31481 5.19665 6.48176 5.16032 6.59767 5.08766C6.71358 5.015 6.77153 4.9112 6.77153 4.77626C6.77153 4.65516 6.73174 4.56174 6.65216 4.496C6.57431 4.43026 6.41775 4.37144 6.18247 4.31954L5.79581 4.23391C5.40829 4.15087 5.12457 4.01852 4.94465 3.83687C4.76646 3.65522 4.67737 3.41043 4.67737 3.10249C4.67737 2.7167 4.80193 2.42 5.05105 2.2124C5.30017 2.0048 5.65828 1.901 6.12538 1.901C6.33817 1.901 6.55701 1.91744 6.78191 1.95031C7.00681 1.98145 7.2395 2.02902 7.47997 2.09303V2.09303Z" fill="#515151"/>
<path d="M8.61398 1.97107H10.2722C10.7652 1.97107 11.1432 2.08092 11.4062 2.30063C11.6709 2.51861 11.8032 2.83001 11.8032 3.23483C11.8032 3.64138 11.6709 3.95451 11.4062 4.17422C11.1432 4.3922 10.7652 4.50119 10.2722 4.50119H9.61306V5.8454H8.61398V1.97107V1.97107ZM9.61306 2.69507V3.77719H10.1658C10.3596 3.77719 10.5092 3.73048 10.6147 3.63706C10.7203 3.54191 10.773 3.40783 10.773 3.23483C10.773 3.06183 10.7203 2.92862 10.6147 2.8352C10.5092 2.74178 10.3596 2.69507 10.1658 2.69507H9.61306Z" fill="#515151"/>
<path d="M12.5065 1.97107H13.5056V4.29359C13.5056 4.61364 13.5575 4.84287 13.6613 4.98127C13.7668 5.11794 13.9381 5.18627 14.1751 5.18627C14.4138 5.18627 14.5851 5.11794 14.6889 4.98127C14.7944 4.84287 14.8472 4.61364 14.8472 4.29359V1.97107H15.8462V4.29359C15.8462 4.842 15.7087 5.25028 15.4336 5.51843C15.1586 5.78658 14.7391 5.92066 14.1751 5.92066C13.6128 5.92066 13.1942 5.78658 12.9191 5.51843C12.644 5.25028 12.5065 4.842 12.5065 4.29359V1.97107V1.97107Z" fill="#515151"/>
<path d="M18.244 3.68896C18.4534 3.68896 18.603 3.65003 18.693 3.57218C18.7847 3.49433 18.8305 3.36631 18.8305 3.18812C18.8305 3.01166 18.7847 2.88537 18.693 2.80925C18.603 2.73313 18.4534 2.69507 18.244 2.69507H17.8236V3.68896H18.244ZM17.8236 4.37923V5.8454H16.8246V1.97107H18.3504C18.8608 1.97107 19.2345 2.0567 19.4715 2.22797C19.7102 2.39924 19.8296 2.66999 19.8296 3.04021C19.8296 3.29625 19.7673 3.50644 19.6427 3.67079C19.5199 3.83514 19.3339 3.95624 19.0848 4.03409C19.2215 4.06523 19.3434 4.13616 19.4507 4.24688C19.5597 4.35587 19.6696 4.52195 19.7803 4.74512L20.3226 5.8454H19.2587L18.7864 4.88266C18.6912 4.6889 18.5944 4.55655 18.4957 4.48562C18.3989 4.41469 18.2691 4.37923 18.1065 4.37923H17.8236V4.37923Z" fill="#515151"/>
</svg>
